X: 22250
T: La Grande Traversée
R: reel
M: 4/4
K: Dmajor
A2G2 S|:F3d dcde|d2A2 F2A2|G3d dcde|d2B2 G2B2|
A3e edef|e2c2 B2A2|1 dFAd fedc|B2A2 {B}A2G2:|2 d2AA BAFA|d6ed||
[K:A]|:cecA EAce|d2B2 B4|GBBB ddBd|ffed c2ed|
cecA EAce|d2B2 B4|GBBB ddBd|fece [1 a2ed:|2 a2ASG||

